X:1
T:Sinner, Come to Jesus
T:Sinner, Come to Jesus
T:Thomas J. Farris
T:A. Roten, 1921
T:Public Domain Courtesy of the Cyber Hymnal™
C:Thomas J. Farris
Z:Public Domain
Z:Courtesy of the Cyber Hymnal™
%%score 1 ( 2 3 )
L:1/8
Q:1/4=113
M:3/4
K:Bb
V:1 treble 
V:2 bass 
V:3 bass 
V:1
 [DF]2 | [DF][DG] [FB]2 [Fc]2 | [GB][EG] [DF]2 [FB]2 | [Fc][Fc] [FB]2 [Fc]2 | [Fd]4 [Fd]2 | %5
w: 1.~Oh,|sin- ner, turn to|Je- sus now, No|long- er make de-|lay; Since|
w: 2.~The|in- vi- ta- tion|is to you, Oh,|come with- out de-|lay; While|
w: 3.~The|Lord has been so|good to you, And|saved you from all|harm; But|
w: 4.~The|time will come, when|Christ will say, Your|days on earth are|o’er; When|
 [Fd][Ec] [DB]2 [Dc]2 | [EB][EG] [DF]2 [D^F]2 | [EG][DB] !fermata![Fd]2 [Ec]2 | [DB]4 || %9
w: Je- sus died on|Cal- va- ry, And|o- pened up the|way.|
w: Je- sus pleads so|ten- der- ly, Now|won’t you come to-|day?|
w: still He says my|Spir- it shall Not|al- ways strive with|man.|
w: you are doomed and|cast a- way, You’ll|hear My voice no|more.|
"^Refrain" [DF]2 | [DF][EG] [FB]2 [EG]2 | [DF] [DB]3 [Ec]2 | [Fd]4 [Ec]2 | [DB]4 [FA]2 | %14
w: |||||
w: |||||
w: |||||
w: |||||
 [EG]3 [FA] [GB]2 | [Gc]2 [GB]2 [EG]2 | [DF]4 [DF]2 | [DB]4 [EG]2 | [DF]2 [FB]2 [Fc]2 | %19
w: |||||
w: |||||
w: |||||
w: |||||
 [Fd]4 [Ec]2 | [DB]4 [Fe]2 | [Fd]4 [Fd]2 | [DB]2 [DB]2 [Ec]2 | [DB]4 |] %24
w: |||||
w: |||||
w: |||||
w: |||||
V:2
 [B,,B,]2 | [B,,B,][B,,B,] [D,B,]2 [E,A,]2 | [E,B,][E,B,] [B,,B,]2 [D,B,]2 | %3
w: ~|~ ~ ~ ~|~ ~ ~ ~|
 [F,A,][E,A,] [D,B,]2 [F,A,]2 | B,4 [B,,B,]2 | [B,,B,][B,,B,] [B,,B,]2 [B,,F,]2 | %6
w: ~ ~ ~ ~|~ ~|~ ~ ~ ~|
 [G,B,][E,B,] [B,,B,]2 [B,,B,]2 | [E,B,][G,B,] !fermata![F,B,]2 [F,,F,A,]2 | [B,,B,]4 || [B,,B,]2 | %10
w: ~ ~ ~ ~|~ ~ ~ ~|~|Oh|
 [B,,B,][B,,B,] [D,B,]2 [E,B,]2 | [B,,B,] [B,,F,]3 [F,A,]2 | B,4 [F,A,]2 | [B,,B,]4 [D,B,]2 | %14
w: won’t you come to|Je- sus, be|saved to-|day, He’s|
 [E,B,]3 [E,B,] [E,B,]2 | [E,E]2 [E,E]2 [E,B,]2 | [B,,B,]4 [B,,B,]2 | [B,,F,]4 [B,,B,]2 | %18
w: ear- nest- ly|plead- ing for|all; The|time will|
 [B,,B,]2 [D,B,]2 [E,A,]2 | [F,B,]4 [F,A,]2 | [G,B,]4 [C,A,]2 | [D,B,]4 [G,B,]2 | %22
w: come when ’twill|be too|late, Too|late to|
 [F,B,]2 [F,B,]2 [F,A,]2 | [B,,F,B,]4 |] %24
w: an- swer the|call.|
V:3
 x2 | x6 | x6 | x6 | B,4 x2 | x6 | x6 | x6 | x4 || x2 | x6 | x6 | B,4 x2 | x6 | x6 | x6 | x6 | x6 | %18
 x6 | x6 | x6 | x6 | x6 | x4 |] %24

